!!!!SEGMENT: pl-cz--iii-106--003_dankowski-adalbert--missa-e-patrem.krn
!!!cenid: 18xx:754
!!!COM: Dankowski, Adalbert
!!!COM-rismID:
!!!CDT: ~1760-~1836
!!!CNT: Polish
!!!OPR: Missa E
!!!OTL: Patrem
!!!OMV: 003
!!!PDT:
!!!AGN: Sacred; Mass
!!!SMS-siglum: PL-CZ
!!!SMS-shelfmark: III-106
!!!SMS-shelfwork: 001-003 M
!!!SMS-variant:
!!!SMS-altvar:
!!!NIFC-rismSourceID: 300000111
!!!NIFC-islandoraID: pl-cz:34215
!!!URL-pdf-islandora: https://repozytorium.nifc.pl/islandora/object/pl-cz%3A34215/datastream/PDF/view
!!!URL-scan:
!!!ONB-nifc: UWAGA: części Mszy: Kyrie, Gloria, Patrem, Et resurrexit, Sanctus, Benedictus, Osanna, Agnus Dei, Dona nobis
!!!AIN: 1 alto 3 empty 1 organ 1 tenor 2 violn 1 vox
!!!key:
**kern	**dynam	**kern	**dynam	**kern	**dynam	**kern	**text	**kern	**text	**kern	**text	**kern	**text	**kern	**kern
*part9	*part9	*part8	*part8	*part7	*part7	*part6	*part6	*part5	*part5	*part4	*part4	*part3	*part3	*part2	*part1
*staff9	*	*staff8	*	*staff7	*	*staff6	*staff6	*staff5	*staff5	*staff4	*staff4	*staff3	*staff3	*staff2	*staff1
*Iorgan	*	*Ivioln	*	*Ivioln	*	*Iempty	*	*Itenor	*	*Ialto	*	*Ivox	*	*Iempty	*Iempty
*I"Organo	*	*I"Violino Secondo	*	*I"Violino Primo	*	*I"Baſso	*	*I"Tenore	*	*I"Alto	*	*I"Canto	*	*I"Clarino Secondo Ex D:	*I"Clarino Primo Ex D:
*I'org	*	*I'vl II	*	*I'vl I	*	*I'B	*	*I'T	*	*I'A	*	*I'C	*	*I'clno II	*I'clno I
*clefF4	*	*clefG2	*	*clefG2	*	*clefF4	*	*clefC4	*	*clefC3	*	*clefC1	*	*clefG2	*clefG2
*	*	*	*	*	*	*	*	*	*	*	*	*	*	*ITrd-1c-2	*ITrd-1c-2
*k[f#c#]	*	*k[f#c#]	*	*k[f#c#]	*	*k[f#c#]	*	*k[f#c#]	*	*k[f#c#]	*	*k[f#c#]	*	*k[f#c#]	*k[f#c#]
*D:	*	*D:	*	*D:	*	*D:	*	*D:	*	*D:	*	*D:	*	*D:	*D:
*M4/4	*	*M4/4	*	*M4/4	*	*M4/4	*	*M4/4	*	*M4/4	*	*M4/4	*	*M4/4	*M4/4
*met(c)	*	*met(c)	*	*met(c)	*	*met(c)	*	*met(c)	*	*met(c)	*	*met(c)	*	*met(c)	*met(c)
=1	=1	=1	=1	=1	=1	=1	=1	=1	=1	=1	=1	=1	=1	=1	=1
!LO:TX:a:t=P:problem=oznaczenie metryczne C z kropką	!	!	!	!LO:TX:a:t=P:f = for:problem	!	!	!	!LO:TX:a:t=P:problem=kolejność znaków c# F#	!	!	!	!	!	!	!
!LO:TX:a:Bi:t=tut	!	!LO:TX:a:t=P:problem=oznaczenie metryczne C z kropką	!	!LO:TX:a:t=P:problem=oznaczenie metryczne C z kropką	!	!LO:TX:a:t=P:problem=oznaczenie metryczne C z kropką	!	!LO:TX:a:t=P:problem=oznaczenie metryczne C z kropką	!	!LO:TX:a:t=P:problem=oznaczenie metryczne C z kropką	!	!LO:TX:a:t=P:problem=oznaczenie metryczne C z kropką	!	!LO:TX:a:t=P:problem=oznaczenie metryczne C z kropką	!LO:TX:a:t=P:problem=oznaczenie metryczne C z kropką
!LO:TX:a:B:t=moderallo	!	!LO:TX:a:B:t=moderatto	!	!LO:TX:a:B:t=moderatto	!	!LO:TX:a:B:t=moderatto	!	!LO:TX:a:B:t=moderatto	!	!LO:TX:a:B:t=Moderatto	!	!LO:TX:a:B:t=moderatto	!	!LO:TX:a:B:t=moderatto	!LO:TX:a:B:t=moderatto
!	!	!	!LO:DY:a	!	!LO:DY:a	!	!	!	!	!	!	!	!	!	!
8D\L	.	8.ff#L 8.a 8.d\	f	8.ff#L 8.a 8.d\	f	4d\	Pa-	4A\	Pa-	4f#\	Pa-	4dd\	Pa-	4dd\	4ff#\
8d\	.	.	.	.	.	.	.	.	.	.	.	.	.	.	.
.	.	16dd\Jk	.	16dd\Jk	.	.	.	.	.	.	.	.	.	.	.
8c#\	.	16ee\LL	.	16ee\LL	.	8c#\	-trem	8A\	-trem	8g\	-trem	8ee\	-trem	4ee\	4gg\
.	.	16gg\	.	16gg\	.	.	.	.	.	.	.	.	.	.	.
8A\J	.	16cc#\	.	16cc#\	.	8A\	om-	8c#\	om-	8g\	om-	8ee\	om-	.	.
.	.	16ee\JJ	.	16ee\JJ	.	.	.	.	.	.	.	.	.	.	.
!	!	!LO:TX:a:t=P:problem=mixed beam	!	!	!	!	!	!	!	!	!	!	!	!	!
8d\L	.	8ff#\L	.	8ff#\	.	8d\	-ni-	8d\	-ni-	8f#\	-ni-	8dd\	-ni-	4dd\	4ff#\
8B\	.	8f#\J	.	4dd\	.	8B\	-po-	8B\	-po-	8f#\	-po-	8dd\	-po-	.	.
8G\	.	4e/	.	.	.	8G\L	-ten-	8B\L	-ten-	4e\	-ten-	8dd\L	-ten-	8dd\L	4ee\
8A\J	.	.	.	8cc#\	.	8A\J	.	8A\J	.	.	.	8cc#\J	.	8a\J	.
=2	=2	=2	=2	=2	=2	=2	=2	=2	=2	=2	=2	=2	=2	=2	=2
!	!	!	!	!LO:TX:a:t=P:problem=mixed beam	!	!	!	!	!	!	!	!	!	!	!
4D\	.	16f#/LL	.	16dd\LL	.	4D\	-tem	4A\	-tem	4f#\	-tem	4dd\	-tem	4f#/	4dd\
.	.	16d/	.	16f#\	.	.	.	.	.	.	.	.	.	.	.
.	.	16e/	.	16g\	.	.	.	.	.	.	.	.	.	.	.
.	.	16f#/JJ	.	16a\JJ	.	.	.	.	.	.	.	.	.	.	.
4r	.	16g/LL	.	16b\LL	.	4r	.	4r	.	4r	.	4r	.	4r	4r
.	.	16a/	.	16cc#\	.	.	.	.	.	.	.	.	.	.	.
.	.	16b/	.	16dd\	.	.	.	.	.	.	.	.	.	.	.
.	.	16cc#/JJ	.	16ee\JJ	.	.	.	.	.	.	.	.	.	.	.
8r	.	8dd/L	.	8ff#\L	.	8r	.	8r	.	8r	.	8r	.	8r	8r
8d\L	.	8a/	.	16dd\L	.	8d\	fac-	8d\	fac-	8a\	fac-	8ff#\	fac-	8ff#\L	8aa\L
.	.	.	.	16ff#\JJ	.	.	.	.	.	.	.	.	.	.	.
8c#\	.	8a/	.	16ff#\LL	.	8c#\	-to-	8e\	-to-	8a\	-to-	8ee\	-to-	8ee\	8aa\
.	.	.	.	16ee\	.	.	.	.	.	.	.	.	.	.	.
8B\J	.	8g#X/J	.	16ee\	.	8B\	-rem	8e\	-rem	8g#X\	-rem	8dd\	-rem	8dd\J	8gg#X\J
.	.	.	.	16dd\JJ	.	.	.	.	.	.	.	.	.	.	.
=3	=3	=3	=3	=3	=3	=3	=3	=3	=3	=3	=3	=3	=3	=3	=3
8A\L	.	8a/L	.	8cc#\	.	8A\	Cae-	8e\	Cae-	8a\	Cae-	8cc#\	Cae-	8a\L	4.aa\
8F#\	.	8cc#/	.	4aa\	.	16F#\	-li	16f#\	-li	16a\	-li	16cc#\	-li	8ff#\	.
.	.	.	.	.	.	16F#\	(et)	16f#\	(et)	16a\	(et)	16cc#\	(et)	.	.
8D\	.	8b/	.	.	.	8D\L	ter-	8f#\L	ter-	8a\L	ter-	4b\	ter-	8ff#\	.
8E\J	.	8b/J	.	8gg#X\	.	8E\J	.	8e\J	.	8g#X\J	.	.	.	8ee\J	8gg#X\
4AA/	.	8cc#/L	.	8aa\L	.	4AA/	-rae	4e\	-rae	4a\	-rae	4cc#\	-rae	4a/	4aa\
.	.	16a/L	.	16cc#\L	.	.	.	.	.	.	.	.	.	.	.
.	.	16g#X/JJ	.	16b\JJ	.	.	.	.	.	.	.	.	.	.	.
4r	.	16a\LL	.	16cc#\LL	.	4r	.	4r	.	4r	.	4r	.	4r	4r
.	.	16b\	.	16dd\	.	.	.	.	.	.	.	.	.	.	.
.	.	16cc#\	.	16ee\	.	.	.	.	.	.	.	.	.	.	.
.	.	16dd\JJ	.	16ff#\JJ	.	.	.	.	.	.	.	.	.	.	.
=4	=4	=4	=4	=4	=4	=4	=4	=4	=4	=4	=4	=4	=4	=4	=4
8r	.	8ee\L	.	4.ggn\	.	8r	.	8r	.	8r	.	8r	.	8r	8r
8A\L	.	8cc#\	.	.	.	8A\L	Vi-	8e\L	Vi-	4g\	Vi-	8cc#\L	Vi-	8ee\L	8gg\L
8B\	.	8dd\	.	.	.	8B\J	.	8d\J	.	.	.	8dd\J	.	8ee\	8gg\
8c#\J	.	8ee\J	.	16aa\LL	.	8c#\	-ſi-	8c#\	-ſi-	8g\	-ſi-	8ee\	-ſi-	8ee\J	8gg\J
.	.	.	.	16gg\JJ	.	.	.	.	.	.	.	.	.	.	.
8d\L	.	8dd/L	.	8ff#\L	.	8d\	-bi-	8d\	-bi-	8f#\	-bi-	8dd\	-bi-	4dd\	4ff#\
8B\	.	32f#/LL	.	32dd\LL	.	16B\	-li-	16B\	-li-	16f#\	-li-	16dd\	-li-	.	.
.	.	32e/	.	32cc#\	.	.	.	.	.	.	.	.	.	.	.
!	!	!	!	!	!	!	!	!LO:N:vis=8	!	!	!	!	!	!	!
.	.	32f#/	.	32dd\	.	16B\	-um	16B\	-um	16f#\	-um	16dd\	-um	.	.
.	.	32g/JJJ	.	32ee\JJJ	.	.	.	.	.	.	.	.	.	.	.
8A\	.	8f#/L	.	8dd\L	.	8A\	om-	8B\	om-	8f#\	om-	8dd\	om-	8dd\L	8ff#\L
8G\J	.	8f#/J	.	8dd\J	.	8G\	-ni-	8B\	-ni-	8f#\	-ni-	8dd\	-ni-	8dd\J	8ff#\J
=5	=5	=5	=5	=5	=5	=5	=5	=5	=5	=5	=5	=5	=5	=5	=5
!	!	!	!	!LO:TX:a:t=P:global:problem=klamra łukowa kropka zamiast numeru	!	!	!	!	!	!	!	!	!	!	!LO:SIC:v:s=4ff#\
4F#\	.	4a/	.	24dd\LL	.	4F#\	-um	4A\	-um	4f#\	-um	4dd\	-um	4dd\	4ee\
.	.	.	.	24ff#\	.	.	.	.	.	.	.	.	.	.	.
.	.	.	.	24ee\JJ	.	.	.	.	.	.	.	.	.	.	.
.	.	.	.	24dd\LL	.	.	.	.	.	.	.	.	.	.	.
.	.	.	.	24ee\	.	.	.	.	.	.	.	.	.	.	.
.	.	.	.	24ff#\JJ	.	.	.	.	.	.	.	.	.	.	.
8r	.	8r	.	24gg\LL	.	8r	.	8r	.	8r	.	8r	.	8r	8r
.	.	.	.	24bb\	.	.	.	.	.	.	.	.	.	.	.
.	.	.	.	24aa\JJ	.	.	.	.	.	.	.	.	.	.	.
8G\	.	8b/	.	24gg\LL	.	16G\	(et)	16B\	(et)	16g\	(et)	16ee\	(et)	8ee\	8gg\
.	.	.	.	24ff#\	.	.	.	.	.	.	.	.	.	.	.
.	.	.	.	.	.	16G\	in-	16B\	in-	16g\	in-	16ee\	in-	.	.
.	.	.	.	24ee\JJ	.	.	.	.	.	.	.	.	.	.	.
8F#\L	.	8a/L	.	8ff#\	.	8F#\	-Vi-	8A\	-Vi-	8f#\	-Vi-	8dd\	-Vi-	4dd\	4ff#\
8B\	.	8f#/J	.	4dd\	.	8B\	-ſi-	8B\	-ſi-	8f#\	-ſi-	8dd\	-ſi-	.	.
8G\	.	4e/	.	.	.	8G\	-bi-	8B\	-bi-	8e\	-bi-	8dd\	-bi-	8dd\L	4dd\
8A\J	.	.	.	8cc#\	.	8A\	-li-	8A\	-li-	8e\	-li-	8cc#\	-li-	8a\J	.
=6	=6	=6	=6	=6	=6	=6	=6	=6	=6	=6	=6	=6	=6	=6	=6
!LO:TX:a:Bi:t=Solo	!	!	!	!	!	!	!	!	!	!	!	!	!	!	!
8D\L	.	8f#/L	.	8dd\L	.	4D\	-um	4A\	-um	4f#\	-um	4dd\	-um	4f#/	4dd\
8D\	.	16a/L	.	16ff#\L	.	.	.	.	.	.	.	.	.	.	.
.	.	16g/JJ	.	16ee\JJ	.	.	.	.	.	.	.	.	.	.	.
8B\	.	8f#/L	.	8dd\L	.	4r	.	4r	.	4r	.	4r	.	4r	4r
8A\J	.	8f#/J	.	8dd#X\J	.	.	.	.	.	.	.	.	.	.	.
!LO:TX:a:t=P:problem=mixed beam	!	!	!	!	!	!	!	!	!	!	!	!	!	!	!
8G\L	.	16g/LL	.	16ee\LL	.	2r	.	2r	.	2r	.	2r	.	8r	8r
.	.	16b/	.	16gg\	.	.	.	.	.	.	.	.	.	.	.
8G\	.	16a/	.	16ff#\	.	.	.	.	.	.	.	.	.	8ee\L	8gg\L
.	.	16g/JJ	.	16ee\JJ	.	.	.	.	.	.	.	.	.	.	.
8A\	.	16g/LL	.	16ee\LL	.	.	.	.	.	.	.	.	.	8dd\	8ff#\
.	.	16f#/	.	16ddn\	.	.	.	.	.	.	.	.	.	.	.
8AA\J	.	16f#/	.	16dd\	.	.	.	.	.	.	.	.	.	8a\J	8ee\J
.	.	16e/JJ	.	16cc#\JJ	.	.	.	.	.	.	.	.	.	.	.
=7	=7	=7	=7	=7	=7	=7	=7	=7	=7	=7	=7	=7	=7	=7	=7
!	!	!	!	!LO:TX:a:t=P:p = piò:problem	!	!	!	!LO:TX:a:t=Solo&colon;	!	!	!	!	!	!	!
!	!LO:DY:a	!	!LO:DY:a	!	!LO:DY:a	!	!	!	!	!	!	!	!	!	!
8D\L	p	4f#/	p	4dd\	p	1r	.	1r	.	8.a\L	(et)	1r	.	4f#/	4dd\
8F#\	.	.	.	.	.	.	.	.	.	.	.	.	.	.	.
.	.	.	.	.	.	.	.	.	.	(32g\LL	.	.	.	.	.
.	.	.	.	.	.	.	.	.	.	32a\JJJ)	.	.	.	.	.
8G\	.	8g/L	.	8ee\L	.	.	.	.	.	16b\LL	.	.	.	4r	4r
.	.	.	.	.	.	.	.	.	.	16g\JJ	.	.	.	.	.
8G#X\J	.	8f#/J	.	8dd\J	.	.	.	.	.	16e\LL	in	.	.	.	.
.	.	.	.	.	.	.	.	.	.	16d\JJ	.	.	.	.	.
8A\L	.	8e/L	.	8cc#\	.	.	.	.	.	8c#\	u-	.	.	2r	2r
8F#\	.	8f#/J	.	4dd\	.	.	.	.	.	8d\	-num	.	.	.	.
8Gn\	.	4e/	.	.	.	.	.	.	.	8.e\	Do-	.	.	.	.
8A\J	.	.	.	8cc#\	.	.	.	.	.	.	.	.	.	.	.
.	.	.	.	.	.	.	.	.	.	32d\LLL	-mi-	.	.	.	.
.	.	.	.	.	.	.	.	.	.	32e\JJJ	.	.	.	.	.
=8	=8	=8	=8	=8	=8	=8	=8	=8	=8	=8	=8	=8	=8	=8	=8
4D\	.	8f#/L	.	16dd\LL	.	1r	.	1r	.	4f#\	-num	1r	.	1r	1r
.	.	.	.	16ff#\	.	.	.	.	.	.	.	.	.	.	.
.	.	16f#/L	.	16aa\	.	.	.	.	.	.	.	.	.	.	.
.	.	16a/JJ	.	16ff#\JJ	.	.	.	.	.	.	.	.	.	.	.
8r	.	16a/LL	.	16ff#\LL	.	.	.	.	.	4r	.	.	.	.	.
.	.	16g/	.	16ee\	.	.	.	.	.	.	.	.	.	.	.
8A\	.	16f#/	.	16dd\	.	.	.	.	.	.	.	.	.	.	.
.	.	16e/JJ	.	16cc#\JJ	.	.	.	.	.	.	.	.	.	.	.
8D\L	.	4f#/	.	4dd\	.	.	.	.	.	8r	.	.	.	.	.
8F#\	.	.	.	.	.	.	.	.	.	4dd\	Je-	.	.	.	.
8G\	.	4r	.	4r	.	.	.	.	.	.	.	.	.	.	.
8A\J	.	.	.	.	.	.	.	.	.	8cc#\	-ſum	.	.	.	.
=9	=9	=9	=9	=9	=9	=9	=9	=9	=9	=9	=9	=9	=9	=9	=9
4D\	.	2r	.	2r	.	1r	.	1r	.	8b\	Chri-	1r	.	1r	1r
.	.	.	.	.	.	.	.	.	.	8a\	-ſtum	.	.	.	.
8E\L	.	.	.	.	.	.	.	.	.	8g#X\	fi-	.	.	.	.
8D\J	.	.	.	.	.	.	.	.	.	16f#\	-li-	.	.	.	.
.	.	.	.	.	.	.	.	.	.	16g#\	-um	.	.	.	.
4C#\	.	4r	.	4r	.	.	.	.	.	8a\	De-	.	.	.	.
.	.	.	.	.	.	.	.	.	.	16a\LL	-i	.	.	.	.
.	.	.	.	.	.	.	.	.	.	16gn\JJ	.	.	.	.	.
4D\	.	8r	.	8r	.	.	.	.	.	16g\LL	u-	.	.	.	.
.	.	.	.	.	.	.	.	.	.	16f#\JJ	.	.	.	.	.
.	.	8d/	.	8b\	.	.	.	.	.	16dd\LL	-ni-	.	.	.	.
.	.	.	.	.	.	.	.	.	.	16b\JJ	.	.	.	.	.
=10	=10	=10	=10	=10	=10	=10	=10	=10	=10	=10	=10	=10	=10	=10	=10
8C#\L	.	4c#/	.	4.a/	.	1r	.	1r	.	4.a\	-ge-	1r	.	1r	1r
8F#\	.	.	.	.	.	.	.	.	.	.	.	.	.	.	.
8D\	.	4B/	.	.	.	.	.	.	.	.	.	.	.	.	.
8E\J	.	.	.	8g#X/	.	.	.	.	.	8g#X\	-ni-	.	.	.	.
4AA/	.	8c#/L	.	16a\LL	.	.	.	.	.	4a\	-tum	.	.	.	.
.	.	.	.	16cc#\	.	.	.	.	.	.	.	.	.	.	.
.	.	16c#/L	.	16ee\	.	.	.	.	.	.	.	.	.	.	.
.	.	16e/JJ	.	16cc#\JJ	.	.	.	.	.	.	.	.	.	.	.
8r	.	16e/LL	.	16cc#/LL	.	.	.	.	.	4r	.	.	.	.	.
.	.	16d/	.	16b/	.	.	.	.	.	.	.	.	.	.	.
8E\	.	16c#/	.	16a/	.	.	.	.	.	.	.	.	.	.	.
.	.	16B/JJ	.	16g#X/JJ	.	.	.	.	.	.	.	.	.	.	.
=11	=11	=11	=11	=11	=11	=11	=11	=11	=11	=11	=11	=11	=11	=11	=11
!	!	!	!	!	!	!	!	!	!	!	!	!LO:TX:a:Bi:t=Solo&colon;	!	!	!
8AA/L	.	8c#/L	.	4a/	.	1r	.	1r	.	1r	.	8.ee\L	(et)	1r	1r
8C#/	.	8e/	.	.	.	.	.	.	.	.	.	.	.	.	.
.	.	.	.	.	.	.	.	.	.	.	.	32dd\LL	.	.	.
.	.	.	.	.	.	.	.	.	.	.	.	32ee\JJJ	.	.	.
8D/	.	8d/	.	8b/L	.	.	.	.	.	.	.	16ff#\LL	.	.	.
.	.	.	.	.	.	.	.	.	.	.	.	16dd\JJ	.	.	.
8D#X/J	.	8c#/J	.	8a/J	.	.	.	.	.	.	.	16b\LL	ex	.	.
.	.	.	.	.	.	.	.	.	.	.	.	16a\JJ	.	.	.
8E/L	.	8B/L	.	8g#X/	.	.	.	.	.	.	.	8g#X\	pa-	.	.
8C#/	.	8c#/J	.	4a/	.	.	.	.	.	.	.	8a\	-tre	.	.
8Dn/	.	4B/	.	.	.	.	.	.	.	.	.	8.b\L	na-	.	.
8E/J	.	.	.	8g#/	.	.	.	.	.	.	.	.	.	.	.
.	.	.	.	.	.	.	.	.	.	.	.	32a\LL	.	.	.
.	.	.	.	.	.	.	.	.	.	.	.	32b\JJJ	.	.	.
=12	=12	=12	=12	=12	=12	=12	=12	=12	=12	=12	=12	=12	=12	=12	=12
4AA/	.	8c#/L	.	16a\LL	.	1r	.	1r	.	1r	.	4cc#\	-tum	1r	1r
.	.	.	.	16cc#\	.	.	.	.	.	.	.	.	.	.	.
.	.	16c#/L	.	16ee\	.	.	.	.	.	.	.	.	.	.	.
.	.	16e/JJ	.	16cc#\JJ	.	.	.	.	.	.	.	.	.	.	.
8r	.	16e/LL	.	16cc#/LL	.	.	.	.	.	.	.	4r	.	.	.
.	.	16d/	.	16b/	.	.	.	.	.	.	.	.	.	.	.
8E\	.	16c#/	.	16a/	.	.	.	.	.	.	.	.	.	.	.
.	.	16B/JJ	.	16g#X/JJ	.	.	.	.	.	.	.	.	.	.	.
8AA/L	.	4c#/	.	4a/	.	.	.	.	.	.	.	8r	.	.	.
8C#/	.	.	.	.	.	.	.	.	.	.	.	8a\	an-	.	.
8D/	.	4r	.	4r	.	.	.	.	.	.	.	8.b\L	-te	.	.
8E/J	.	.	.	.	.	.	.	.	.	.	.	.	.	.	.
.	.	.	.	.	.	.	.	.	.	.	.	32a\LL	.	.	.
.	.	.	.	.	.	.	.	.	.	.	.	32b\JJJ	.	.	.
=13	=13	=13	=13	=13	=13	=13	=13	=13	=13	=13	=13	=13	=13	=13	=13
4AA/	.	1r	.	2r	.	1r	.	1r	.	1r	.	8cc#\	om-	1r	1r
.	.	.	.	.	.	.	.	.	.	.	.	16dd\	-ni-	.	.
.	.	.	.	.	.	.	.	.	.	.	.	16ee\	-a	.	.
8A\L	.	.	.	.	.	.	.	.	.	.	.	8ff#\	ſae-	.	.
8A#X\J	.	.	.	.	.	.	.	.	.	.	.	8ee\	-cu-	.	.
!LO:TX:a:t=P:problem=2\right&colon; global	!	!	!	!	!	!	!	!	!	!	!	!	!	!	!
2B\	.	.	.	8r	.	.	.	.	.	.	.	8dd\	-la	.	.
.	.	.	.	8b\L	.	.	.	.	.	.	.	8b\	De-	.	.
.	.	.	.	8cc#\	.	.	.	.	.	.	.	8cc#\	-um	.	.
.	.	.	.	8dd#X\J	.	.	.	.	.	.	.	8dd#X\	de	.	.
=14	=14	=14	=14	=14	=14	=14	=14	=14	=14	=14	=14	=14	=14	=14	=14
2E\	.	8r	.	4ee\	.	1r	.	1r	.	8r	.	(4ee\	De-	1r	1r
.	.	8e/L	.	.	.	.	.	.	.	8e\	Lu-	.	.	.	.
.	.	8f#/	.	4ddn\	.	.	.	.	.	8f#\	-men	4ddn\)	.	.	.
.	.	8g#X/J	.	.	.	.	.	.	.	8g#X\	de	.	.	.	.
2A\	.	4a/	.	8cc#\L	.	.	.	.	.	4a\	lu-	8cc#\	-o	.	.
.	.	.	.	8a\	.	.	.	.	.	.	.	8a\	lu-	.	.
.	.	4gn/	.	8b\	.	.	.	.	.	4gn\	-mi-	8b\	-men	.	.
.	.	.	.	8cc#\J	.	.	.	.	.	.	.	8cc#\	de	.	.
=15	=15	=15	=15	=15	=15	=15	=15	=15	=15	=15	=15	=15	=15	=15	=15
2D\	.	8f#/L	.	4dd\	.	1r	.	1r	.	8f#\	-ne	4dd\	lu-	1r	1r
.	.	8d/	.	.	.	.	.	.	.	8d\L	De-	.	.	.	.
.	.	8e/	.	4cc#\	.	.	.	.	.	8e\J	.	4cc#\	-mi-	.	.
.	.	8f#/J	.	.	.	.	.	.	.	8f#\	-um	.	.	.	.
4.E\	.	4g/	.	4b\	.	.	.	.	.	4g\	Ve-	4b\	-ne	.	.
.	.	4g/	.	8cc#\L	.	.	.	.	.	8g\	-rum	8cc#\L	de	.	.
8E#X\	.	.	.	8b\J	.	.	.	.	.	8g\	de	8b\J	.	.	.
=16	=16	=16	=16	=16	=16	=16	=16	=16	=16	=16	=16	=16	=16	=16	=16
!	!	!	!	!	!	!LO:TX:a:Bi:t=Solo	!	!	!	!	!	!	!	!	!
8F#\L	.	8a#X/	.	8cc#\L	.	2r	.	1r	.	8a#X\	De-	8cc#\	De-	1r	1r
8G\	.	4b/	.	8dd\J	.	.	.	.	.	8b\	-o	8dd\	-o	.	.
8En\	.	.	.	4cc#\	.	.	.	.	.	8b\L	Ve-	4cc#\	Ve-	.	.
8F#\J	.	8a#/	.	.	.	.	.	.	.	8a#\J	.	.	.	.	.
4BB/	.	4b/	.	4dd\	.	8.B\	Ge-	.	.	4b\	-ro	4dd\	-ro	.	.
.	.	.	.	.	.	16BB/	-ni-	.	.	.	.	.	.	.	.
4r	.	4r	.	4r	.	16D/LL	-tum	.	.	4r	.	4r	.	.	.
.	.	.	.	.	.	16BB/JJ	.	.	.	.	.	.	.	.	.
.	.	.	.	.	.	16D\LL	non	.	.	.	.	.	.	.	.
.	.	.	.	.	.	16F#\JJ	.	.	.	.	.	.	.	.	.
=17	=17	=17	=17	=17	=17	=17	=17	=17	=17	=17	=17	=17	=17	=17	=17
4B\	.	16dd\LL	.	16dd\LL	.	8B\	fac-	1r	.	1r	.	1r	.	1r	1r
.	.	16b\	.	16b\	.	.	.	.	.	.	.	.	.	.	.
.	.	16cc#\	.	16cc#\	.	8BB/	-tum	.	.	.	.	.	.	.	.
.	.	16dd\JJ	.	16dd\JJ	.	.	.	.	.	.	.	.	.	.	.
8r	.	16ee\LL	.	16ee\LL	.	4r	.	.	.	.	.	.	.	.	.
.	.	16cc#\	.	16cc#\	.	.	.	.	.	.	.	.	.	.	.
8A#X\	.	16ff#\	.	16ff#\	.	.	.	.	.	.	.	.	.	.	.
.	.	16ee\JJ	.	16ee\JJ	.	.	.	.	.	.	.	.	.	.	.
*	*	*	*	*	*	*	*ij	*	*	*	*	*	*	*	*
4B\	.	4dd\	.	4dd\	.	8.d\	Ge-	.	.	.	.	.	.	.	.
.	.	.	.	.	.	16D\	-ni-	.	.	.	.	.	.	.	.
4r	.	4r	.	4r	.	16F#\LL	-tum	.	.	.	.	.	.	.	.
.	.	.	.	.	.	16D\JJ	.	.	.	.	.	.	.	.	.
.	.	.	.	.	.	16F#\LL	non	.	.	.	.	.	.	.	.
.	.	.	.	.	.	16A\JJ	.	.	.	.	.	.	.	.	.
=18	=18	=18	=18	=18	=18	=18	=18	=18	=18	=18	=18	=18	=18	=18	=18
4D\	.	16ff#\LL	.	16ff#\LL	.	8d\	fac-	1r	.	1r	.	1r	.	1r	1r
.	.	16dd\	.	16dd\	.	.	.	.	.	.	.	.	.	.	.
.	.	16ee\	.	16ee\	.	8D\	-tum	.	.	.	.	.	.	.	.
.	.	16ff#\JJ	.	16ff#\JJ	.	.	.	.	.	.	.	.	.	.	.
*	*	*	*	*	*	*	*Xij	*	*	*	*	*	*	*	*
8r	.	16gg\LL	.	16gg\LL	.	4r	.	.	.	.	.	.	.	.	.
.	.	16ee\	.	16ee\	.	.	.	.	.	.	.	.	.	.	.
8C#\	.	16aa\	.	16aa\	.	.	.	.	.	.	.	.	.	.	.
.	.	16gg\JJ	.	16gg\JJ	.	.	.	.	.	.	.	.	.	.	.
8D\L	.	4ff#\	.	4ff#\	.	8r	.	.	.	.	.	.	.	.	.
8D\	.	.	.	.	.	4d\	Con-	.	.	.	.	.	.	.	.
8F#\	.	4r	.	4r	.	.	.	.	.	.	.	.	.	.	.
8A\J	.	.	.	.	.	8c#\	-ſub-	.	.	.	.	.	.	.	.
=19	=19	=19	=19	=19	=19	=19	=19	=19	=19	=19	=19	=19	=19	=19	=19
!	!	!	!	!	!	!	!	!	!	!	!	!	!	!LO:TX:b:Bi:t=Verte	!LO:TX:b:Bi:t=Verto
4D\	.	1r	.	1r	.	8d\	-ſtan-	1r	.	1r	.	1r	.	1r	1r
.	.	.	.	.	.	16A\LL	-ti-	.	.	.	.	.	.	.	.
.	.	.	.	.	.	16G\JJ	.	.	.	.	.	.	.	.	.
8r	.	.	.	.	.	16F#\LL	-a-	.	.	.	.	.	.	.	.
.	.	.	.	.	.	16E\JJ	.	.	.	.	.	.	.	.	.
8d\	.	.	.	.	.	16F#\LL	-lem	.	.	.	.	.	.	.	.
.	.	.	.	.	.	16G\JJ	.	.	.	.	.	.	.	.	.
8c#\L	.	.	.	.	.	8A\	pa-	.	.	.	.	.	.	.	.
8B\	.	.	.	.	.	8G\	-tri	.	.	.	.	.	.	.	.
8A\	.	.	.	.	.	8F#\	per	.	.	.	.	.	.	.	.
8G\J	.	.	.	.	.	8B\	quem	.	.	.	.	.	.	.	.
=20	=20	=20	=20	=20	=20	=20	=20	=20	=20	=20	=20	=20	=20	=20	=20
8F#\L	.	8r	.	8r	.	8A\	om-	1r	.	1r	.	1r	.	8r	8r
8B\	.	8f#/L	.	8dd\L	.	16F#\	-ni-	.	.	.	.	.	.	8dd\L	8ff#\L
.	.	.	.	.	.	16F#\	-a	.	.	.	.	.	.	.	.
8G\	.	8e/	.	8dd\	.	8E\	fac-	.	.	.	.	.	.	8dd\	8ee\
8A\J	.	8e/J	.	8cc#\J	.	8E\	-ta	.	.	.	.	.	.	8a\J	8dd\J
4D\	.	8f#/L	.	16dd\LL	.	4D\	ſunt	.	.	.	.	.	.	4f#/	4dd\
.	.	.	.	16a\	.	.	.	.	.	.	.	.	.	.	.
.	.	8a/J	.	16dd\	.	.	.	.	.	.	.	.	.	.	.
.	.	.	.	16ff#\JJ	.	.	.	.	.	.	.	.	.	.	.
!LO:TX:a:Bi:t=tutti	!	!	!	!	!	!	!	!	!	!	!	!	!	!	!
4r	.	16cc#\LL	.	16ee\LL	.	4r	.	.	.	.	.	.	.	4r	4r
.	.	16dd\	.	16ff#\	.	.	.	.	.	.	.	.	.	.	.
.	.	16ee\	.	16gg\	.	.	.	.	.	.	.	.	.	.	.
.	.	16cc#\JJ	.	16ee\JJ	.	.	.	.	.	.	.	.	.	.	.
=21	=21	=21	=21	=21	=21	=21	=21	=21	=21	=21	=21	=21	=21	=21	=21
!	!	!	!LO:DY:a	!	!LO:DY:a	!	!	!	!	!	!	!	!	!	!
8D\L	.	8.dd\L	f	8.ff#L 8.a 8.d\	f	4d\	Qui	4A\	qui	4f#\	qui	4dd\	qui	4dd\	4ff#\
8d\	.	.	.	.	.	.	.	.	.	.	.	.	.	.	.
.	.	16dd\Jk	.	16dd\Jk	.	.	.	.	.	.	.	.	.	.	.
!	!	!	!	!	!	!	!	!	!	!	!	!	!	!LO:SIC:v:s=4ee\	!
8c#\	.	16ee\LL	.	16ee\LL	.	4c#\	prop-	4A\	prop-	4g\	prop-	4ee\	prop-	4dd\	4gg\
.	.	16gg\	.	16gg\	.	.	.	.	.	.	.	.	.	.	.
8A\J	.	16cc#\	.	16cc#\	.	.	.	.	.	.	.	.	.	.	.
.	.	16ee\JJ	.	16ee\JJ	.	.	.	.	.	.	.	.	.	.	.
!	!	!LO:TX:a:t=P:problem=mixed beam	!	!	!	!	!	!	!	!	!	!	!	!	!
8d\L	.	8dd\L	.	8ff#\	.	8d\	-ter	8A\	-ter	8f#\	-ter	8dd\	-ter	4dd\	4ff#\
8B\	.	8f#\J	.	4dd\	.	8B\	nos	8B\	nos	8f#\	nos	8dd\	nos	.	.
8G\	.	4e/	.	.	.	8G\	ho-	8B\	ho-	8e\	ho-	8dd\	ho-	8dd\L	4ee\
8A\J	.	.	.	8cc#\	.	8A\	-mi-	8A\	-mi-	8e\	-mi-	8cc#\	-mi-	8a\J	.
=22	=22	=22	=22	=22	=22	=22	=22	=22	=22	=22	=22	=22	=22	=22	=22
!	!	!	!	!LO:TX:a:t=P:problem=mixed beam	!	!	!	!	!	!	!	!	!	!	!
4D\	.	16f#/LL	.	16dd\LL	.	4D\	-nes	4A\	-nes	4f#\	-nes	4dd\	-nes	4f#/	4dd\
.	.	16d/	.	16f#\	.	.	.	.	.	.	.	.	.	.	.
.	.	16e/	.	16g\	.	.	.	.	.	.	.	.	.	.	.
.	.	16f#/JJ	.	16a\JJ	.	.	.	.	.	.	.	.	.	.	.
4r	.	16g/LL	.	16b\LL	.	4r	.	4r	.	4r	.	4r	.	4r	4r
.	.	16a/	.	16cc#\	.	.	.	.	.	.	.	.	.	.	.
.	.	16b/	.	16dd\	.	.	.	.	.	.	.	.	.	.	.
.	.	16cc#/JJ	.	16ee\JJ	.	.	.	.	.	.	.	.	.	.	.
8r	.	8dd/L	.	8ff#\L	.	8r	.	8r	.	8r	.	8r	.	8r	8r
8d\L	.	8a/	.	16dd\L	.	8d\	(et)	8d\	(et)	8a\	(et)	8ff#\	(et)	8ff#\L	8aa\L
.	.	.	.	16ff#\JJ	.	.	.	.	.	.	.	.	.	.	.
8c#\	.	8a/	.	16ff#\LL	.	8c#\	prop-	8e\	prop-	8a\	prop-	8ee\	prop-	8ee\	8aa\
.	.	.	.	16ee\	.	.	.	.	.	.	.	.	.	.	.
8B\J	.	8g#X/J	.	16ee\	.	8B\	-ter	8e\	-ter	8g#X\	-ter	8dd\	-ter	8dd\J	8gg#X\J
.	.	.	.	16dd\JJ	.	.	.	.	.	.	.	.	.	.	.
=23	=23	=23	=23	=23	=23	=23	=23	=23	=23	=23	=23	=23	=23	=23	=23
8A\L	.	8a/L	.	8cc#\	.	8A\	no-	8e\	no-	8a\	no-	8cc#\	no-	8a\L	4.aa\
8F#\	.	8cc#/	.	4aa\	.	16F#\	-ſtram	16f#\	-ſtram	16a\	-ſtram	16cc#\	-ſtram	8ff#\	.
.	.	.	.	.	.	16F#\	ſa-	16f#\	ſa-	16a\	ſa-	16cc#\	ſa-	.	.
8D\	.	8b/	.	.	.	8D\L	-lu-	8f#\L	lu-	8a\L	-lu-	4b\	-lu-	8ff#\	.
8E\J	.	8b/J	.	8gg#X\	.	8E\J	.	8e\J	.	8g#X\J	.	.	.	8ee\J	8gg#X\
4AA/	.	8a/L	.	8aa\L	.	4AA/	-tem	4e\	-tem	4a\	-tem	4cc#\	-tem	4ee\	4aa\
.	.	16a/L	.	16cc#\L	.	.	.	.	.	.	.	.	.	.	.
.	.	16g#X/JJ	.	16b\JJ	.	.	.	.	.	.	.	.	.	.	.
4r	.	16a\LL	.	16cc#\LL	.	4r	.	4r	.	4r	.	4r	.	4r	4r
.	.	16b\	.	16dd\	.	.	.	.	.	.	.	.	.	.	.
.	.	16cc#\	.	16ee\	.	.	.	.	.	.	.	.	.	.	.
.	.	16dd\JJ	.	16ff#\JJ	.	.	.	.	.	.	.	.	.	.	.
=24	=24	=24	=24	=24	=24	=24	=24	=24	=24	=24	=24	=24	=24	=24	=24
8r	.	8ee\L	.	4.ggn\	.	8r	.	8r	.	8r	.	8r	.	8r	8r
8A\L	.	8cc#\	.	.	.	8A\	Deſ-	8e\	Deſ-	8g\	Deſ-	8cc#\	deſ-	8ee\L	8gg\L
8B\	.	8dd\	.	.	.	8B\L	-cen-	8d\L	-cen-	4g\	-cen-	8dd\L	-cen-	8dd\	8gg\
8c#\J	.	8ee\J	.	16aa\LL	.	8c#\J	.	8c#\J	.	.	.	8ee\J	.	8ee\J	8gg\J
.	.	.	.	16gg\JJ	.	.	.	.	.	.	.	.	.	.	.
8d\L	.	8dd/L	.	8ff#\L	.	8d\	-dit	8d\	-dit	8f#\	-dit	8dd\	-dit	4dd\	4ff#\
*	*	*	*	*	*	*	*	*	*ij	*	*ij	*	*ij	*	*
8B\	.	32f#/LL	.	32dd\LL	.	8B\	deſ-	8B\	Deſ-	8f#\	Deſ-	8dd\	deſ-	.	.
.	.	32e/	.	32cc#\	.	.	.	.	.	.	.	.	.	.	.
.	.	32f#/	.	32dd\	.	.	.	.	.	.	.	.	.	.	.
.	.	32g/JJJ	.	32ee\JJJ	.	.	.	.	.	.	.	.	.	.	.
!	!	!	!	!	!	!	!	!	!	!LO:SIC:v:s=4e\	!	!	!	!	!
8A\	.	8f#/L	.	8dd\L	.	8A\L	-cen-	4B\	-cen-	4f#\	-cen-	4cc#\	-cen-	4dd\	4ff#\
8G\J	.	8f#/J	.	8dd\J	.	8G\J	.	.	.	.	.	.	.	.	.
=25	=25	=25	=25	=25	=25	=25	=25	=25	=25	=25	=25	=25	=25	=25	=25
!	!	!	!	!LO:TX:a:t=P:problem=triole bez numerów i łuków w t. 25	!	!	!	!	!	!	!	!	!	!	!
4F#\	.	4a/	.	24dd\LL	.	4F#\	-dit	4A\	-dit	4f#\	-dit	4dd\	-dit	4dd\	4ff#\
.	.	.	.	24ff#\	.	.	.	.	.	.	.	.	.	.	.
.	.	.	.	24ee\JJ	.	.	.	.	.	.	.	.	.	.	.
.	.	.	.	24dd\LL	.	.	.	.	.	.	.	.	.	.	.
.	.	.	.	24ee\	.	.	.	.	.	.	.	.	.	.	.
.	.	.	.	24ff#\JJ	.	.	.	.	.	.	.	.	.	.	.
*	*	*	*	*	*	*	*	*	*Xij	*	*	*	*Xij	*	*
8r	.	8r	.	24gg\LL	.	8r	.	8r	.	8r	.	8r	.	8r	8r
.	.	.	.	24bb\	.	.	.	.	.	.	.	.	.	.	.
.	.	.	.	24aa\JJ	.	.	.	.	.	.	.	.	.	.	.
8G\	.	8b/	.	24gg\LL	.	8G\	de	8B\	de	8g\	Deſ-	8ee\	deſ-	8ee\	8gg\
.	.	.	.	24ff#\	.	.	.	.	.	.	.	.	.	.	.
.	.	.	.	24ee\JJ	.	.	.	.	.	.	.	.	.	.	.
8F#\L	.	8a/L	.	8ff#\	.	8F#\L	Cae-	8A\	Cae-	16f#\	-cen-	8dd\	-cen-	4dd\	4ff#\
.	.	.	.	.	.	.	.	.	.	16f#\	-dit	.	.	.	.
*	*	*	*	*	*	*	*	*	*	*	*Xij	*	*	*	*
8B\	.	8f#/J	.	4dd\	.	8B\	.	4B\	.	8f#\	de	16dd\	-dit	.	.
.	.	.	.	.	.	.	.	.	.	.	.	16dd\	de	.	.
8G\	.	4e/	.	.	.	8G\	.	.	.	4e\	Cae-	8dd\L	Cae-	8dd\L	4ee\
8A\J	.	.	.	8cc#\	.	8A\J	.	8A\	.	.	.	8cc#\J	.	8a\J	.
=26	=26	=26	=26	=26	=26	=26	=26	=26	=26	=26	=26	=26	=26	=26	=26
4D\	.	4f#/	.	4dd\	.	4D\	-lis	4A\	-lis	4f#\	-lis	4dd\	-lis	4f#/	4dd\
4r	.	4r	.	4r	.	4r	.	4r	.	4r	.	4r	.	4r	4r
!LO:TX:b:Bi:t=Volti	!	!	!	!	!	!	!	!	!	!	!	!	!	!	!
2r	.	2r	.	2r	.	2r	.	2r	.	2r	.	2r	.	2r	2r
=27||	=27||	=27||	=27||	=27||	=27||	=27||	=27||	=27||	=27||	=27||	=27||	=27||	=27||	=27||	=27||
*k[f#]	*	*k[f#]	*	*k[f#]	*	*k[f#]	*	*k[f#]	*	*k[f#]	*	*k[f#]	*	*k[f#]	*k[f#]
*M3/4	*	*M3/4	*	*M3/4	*	*M3/4	*	*M3/4	*	*M3/4	*	*M3/4	*	*M3/4	*M3/4
!LO:TX:a:B:t=andan	!	!LO:TX:a:B:t=andan:	!	!LO:TX:a:B:t=andan:	!	!	!	!	!	!	!	!LO:TX:a:B:t=andan	!	!	!
!	!	!	!	!	!	!LO:TX:a:B:t=(Et) incarnat(us) Tacet	!	!LO:TX:a:B:t=(Et) incarnat(us) Tacet	!	!LO:TX:a:B:t=Et incarnat(us) Tacet	!	!	!	!LO:TX:a:B:t=(Et) incarnatus Tacet	!LO:TX:a:B:t=(Et) incarnat(us) Tacet
!LO:TX:a:t=P:problem=mixed beam	!	!	!	!	!	!	!	!	!	!	!	!	!	!	!
!LO:TX:a:Bi:t=Solo	!	!	!	!	!	!	!	!	!	!	!	!LO:TX:a:t=Solo	!	!	!
8GG\L	.	8r	.	8r	.	2.ryy	.	2.ryy	.	2.ryy	.	4dd\	Et	2.ryy	2.ryy
!	!	!	!LO:DY:a	!	!LO:DY:a	!	!	!	!	!	!	!	!	!	!
8G\	.	8b\L	p	8dd\L	p	.	.	.	.	.	.	.	.	.	.
8G\	.	8b\	.	8dd\	.	.	.	.	.	.	.	8cc\L	in-	.	.
8G\	.	8b\	.	8dd\	.	.	.	.	.	.	.	8b\J	.	.	.
8G\	.	8b\	.	8dd\	.	.	.	.	.	.	.	8a\L	-car-	.	.
8G\J	.	8b\J	.	8dd\J	.	.	.	.	.	.	.	8g\J	.	.	.
=28	=28	=28	=28	=28	=28	=28	=28	=28	=28	=28	=28	=28	=28	=28	=28
!	!	!	!	!	!	!	!	!	!	!	!	!LO:TX:a:t=P:problem=2\right&colon; global	!	!	!
8r	.	8r	.	8r	.	2.ryy	.	2.ryy	.	2.ryy	.	2ee\	-na-	2.ryy	2.ryy
8G\L	.	8cc\L	.	8ee\L	.	.	.	.	.	.	.	.	.	.	.
8G\	.	8cc\	.	8ee\	.	.	.	.	.	.	.	.	.	.	.
8G\	.	8cc\	.	8ee\	.	.	.	.	.	.	.	.	.	.	.
8G\	.	8b\	.	8dd\	.	.	.	.	.	.	.	4dd\	.	.	.
8G\J	.	8b\J	.	8dd\J	.	.	.	.	.	.	.	.	.	.	.
=29	=29	=29	=29	=29	=29	=29	=29	=29	=29	=29	=29	=29	=29	=29	=29
8r	.	8r	.	8r	.	2.ryy	.	2.ryy	.	2.ryy	.	4.cc\	.	2.ryy	2.ryy
8G\L	.	8a/L	.	8cc\L	.	.	.	.	.	.	.	.	.	.	.
8G\	.	8a/	.	8cc\	.	.	.	.	.	.	.	.	.	.	.
8G\	.	8a/	.	8cc\	.	.	.	.	.	.	.	16b\LL	.	.	.
.	.	.	.	.	.	.	.	.	.	.	.	16cc\JJ	.	.	.
8F#\	.	8a/	.	8cc\	.	.	.	.	.	.	.	8dd\L	.	.	.
8F#\J	.	8a/J	.	8cc\J	.	.	.	.	.	.	.	8cc\J	.	.	.
=30	=30	=30	=30	=30	=30	=30	=30	=30	=30	=30	=30	=30	=30	=30	=30
8r	.	8r	.	8r	.	2.ryy	.	2.ryy	.	2.ryy	.	8cc\	.	2.ryy	2.ryy
8G\L	.	8d/L	.	8b\L	.	.	.	.	.	.	.	8b\	-tus	.	.
8G\	.	8d/	.	8b\	.	.	.	.	.	.	.	4b\	eſt	.	.
8G\	.	8d/	.	8b\	.	.	.	.	.	.	.	.	.	.	.
8G\	.	8d/	.	8b\	.	.	.	.	.	.	.	4r	.	.	.
8G\J	.	8d/J	.	8b\J	.	.	.	.	.	.	.	.	.	.	.
=31	=31	=31	=31	=31	=31	=31	=31	=31	=31	=31	=31	=31	=31	=31	=31
8r	.	8r	.	8r	.	2.ryy	.	2.ryy	.	2.ryy	.	2.b\	de	2.ryy	2.ryy
8G\L	.	8d/L	.	8b\L	.	.	.	.	.	.	.	.	.	.	.
8G\	.	8d/	.	8b\	.	.	.	.	.	.	.	.	.	.	.
8G\	.	8d/	.	8b\	.	.	.	.	.	.	.	.	.	.	.
8G\	.	8d/	.	8b\	.	.	.	.	.	.	.	.	.	.	.
8G\J	.	8d/J	.	8b\J	.	.	.	.	.	.	.	.	.	.	.
=32	=32	=32	=32	=32	=32	=32	=32	=32	=32	=32	=32	=32	=32	=32	=32
8r	.	8r	.	8r	.	2.ryy	.	2.ryy	.	2.ryy	.	8a\	ſpi-	2.ryy	2.ryy
8F#\L	.	8d/L	.	8a/L	.	.	.	.	.	.	.	8a\	-ri-	.	.
8F#\	.	8d/	.	8a/	.	.	.	.	.	.	.	4dd\	-tu	.	.
8F#\	.	8d/	.	8a/	.	.	.	.	.	.	.	.	.	.	.
8F#\	.	8d/	.	8a/	.	.	.	.	.	.	.	8r	.	.	.
*	*	*	*	*	*	*	*	*	*	*	*	*	*ij	*	*
8F#\J	.	8d/J	.	8a/J	.	.	.	.	.	.	.	8a\	de	.	.
=33	=33	=33	=33	=33	=33	=33	=33	=33	=33	=33	=33	=33	=33	=33	=33
8r	.	8r	.	8r	.	2.ryy	.	2.ryy	.	2.ryy	.	(4.g\	ſpi-	2.ryy	2.ryy
8G\L	.	8d/L	.	8b\L	.	.	.	.	.	.	.	.	.	.	.
8E\	.	8g/	.	8b\	.	.	.	.	.	.	.	.	.	.	.
8E\	.	8g/	.	8b\	.	.	.	.	.	.	.	16f#\LL	.	.	.
.	.	.	.	.	.	.	.	.	.	.	.	16g\JJ)	.	.	.
8C#X\	.	8g/	.	8b\	.	.	.	.	.	.	.	16ee\LL	-ri-	.	.
.	.	.	.	.	.	.	.	.	.	.	.	16cc#X\JJ	.	.	.
8C#\J	.	8g/J	.	8b\J	.	.	.	.	.	.	.	16a\LL	-tu	.	.
.	.	.	.	.	.	.	.	.	.	.	.	16g\JJ	.	.	.
*	*	*	*	*	*	*	*	*	*	*	*	*	*Xij	*	*
=34	=34	=34	=34	=34	=34	=34	=34	=34	=34	=34	=34	=34	=34	=34	=34
8r	.	8r	.	8r	.	2.ryy	.	2.ryy	.	2.ryy	.	8g/L	ſan-	2.ryy	2.ryy
8D\L	.	8g/L	.	8b/L	.	.	.	.	.	.	.	16f#/L	.	.	.
.	.	.	.	.	.	.	.	.	.	.	.	16g/JJ	.	.	.
8D\	.	8f#/	.	8a/	.	.	.	.	.	.	.	4f#/	-cto	.	.
8D\	.	8f#/	.	8a/	.	.	.	.	.	.	.	.	.	.	.
8D\	.	8f#/	.	8a/	.	.	.	.	.	.	.	4r	.	.	.
8D\J	.	8f#/J	.	8a/J	.	.	.	.	.	.	.	.	.	.	.
=35	=35	=35	=35	=35	=35	=35	=35	=35	=35	=35	=35	=35	=35	=35	=35
8r	.	8r	.	8r	.	2.ryy	.	2.ryy	.	2.ryy	.	(4.a\	Ex	2.ryy	2.ryy
8D\L	.	8d/L	.	8f#/L	.	.	.	.	.	.	.	.	.	.	.
8D\	.	8d/	.	8f#/	.	.	.	.	.	.	.	.	.	.	.
8D\	.	8d/	.	8f#/	.	.	.	.	.	.	.	16b\LL	.	.	.
.	.	.	.	.	.	.	.	.	.	.	.	16cc#X\JJ)	.	.	.
8D\	.	8d/	.	8f#/	.	.	.	.	.	.	.	16dd\LL	.	.	.
.	.	.	.	.	.	.	.	.	.	.	.	16cc#\JJ	.	.	.
8D\J	.	8d/J	.	8f#/J	.	.	.	.	.	.	.	16b\LL	Ma-	.	.
.	.	.	.	.	.	.	.	.	.	.	.	16a\JJ	.	.	.
=36	=36	=36	=36	=36	=36	=36	=36	=36	=36	=36	=36	=36	=36	=36	=36
8r	.	8r	.	8r	.	2.ryy	.	2.ryy	.	2.ryy	.	8a\L	-ri-	2.ryy	2.ryy
8E\L	.	8c#X/L	.	8g/L	.	.	.	.	.	.	.	8g\J	.	.	.
8E\	.	8c#/	.	8g/	.	.	.	.	.	.	.	2g\	-a	.	.
8E\	.	8c#/	.	8g/	.	.	.	.	.	.	.	.	.	.	.
8E\	.	8c#/	.	8g/	.	.	.	.	.	.	.	.	.	.	.
8E\J	.	8c#/J	.	8g/J	.	.	.	.	.	.	.	.	.	.	.
=37	=37	=37	=37	=37	=37	=37	=37	=37	=37	=37	=37	=37	=37	=37	=37
8r	.	8r	.	8r	.	2.ryy	.	2.ryy	.	2.ryy	.	8.ee\L	Ma-	2.ryy	2.ryy
!	!	!LO:SIC:v:s=8c#/L	!	!	!	!	!	!	!	!	!	!	!	!	!
8AA/L	.	8c/L	.	8e/L	.	.	.	.	.	.	.	.	.	.	.
.	.	.	.	.	.	.	.	.	.	.	.	16dd\Jk	.	.	.
!	!	!LO:SIC:v:s=8c#/	!	!	!	!	!	!	!	!	!	!	!	!	!
8AA/	.	8c/	.	8e/	.	.	.	.	.	.	.	16cc#X\LL	.	.	.
.	.	.	.	.	.	.	.	.	.	.	.	16dd\	.	.	.
!	!	!LO:SIC:v:s=8c#/	!	!	!	!	!	!	!	!	!	!	!	!	!
8AA/	.	8c/	.	8e/	.	.	.	.	.	.	.	16cc#\	.	.	.
.	.	.	.	.	.	.	.	.	.	.	.	16b\JJ	.	.	.
!	!	!LO:SIC:v:s=8c#/	!	!	!	!	!	!	!	!	!	!	!	!	!
8AA/	.	8c/	.	8e/	.	.	.	.	.	.	.	16a\LL	-ri-	.	.
.	.	.	.	.	.	.	.	.	.	.	.	16b\JJ	.	.	.
!	!	!LO:SIC:v:s=8c#/J	!	!	!	!	!	!	!	!	!	!	!	!	!
8AA/J	.	8c/J	.	8e/J	.	.	.	.	.	.	.	16a\LL	-a	.	.
.	.	.	.	.	.	.	.	.	.	.	.	16g\JJ	.	.	.
=38	=38	=38	=38	=38	=38	=38	=38	=38	=38	=38	=38	=38	=38	=38	=38
8r	.	8r	.	8r	.	2.ryy	.	2.ryy	.	2.ryy	.	8g\	Vir-	2.ryy	2.ryy
8D\L	.	8A/L	.	8f#/L	.	.	.	.	.	.	.	8f#/	-gi-	.	.
8D\	.	8A/	.	8f#/	.	.	.	.	.	.	.	4f#/	-ne	.	.
8D\	.	8A/	.	8f#/	.	.	.	.	.	.	.	.	.	.	.
8D\	.	8A/	.	8f#/	.	.	.	.	.	.	.	4r	.	.	.
8D\J	.	8A/J	.	8f#/J	.	.	.	.	.	.	.	.	.	.	.
=39	=39	=39	=39	=39	=39	=39	=39	=39	=39	=39	=39	=39	=39	=39	=39
8r	.	8r	.	8r	.	2.ryy	.	2.ryy	.	2.ryy	.	2.dd\	(et)	2.ryy	2.ryy
8D\L	.	8f#/L	.	8a/L	.	.	.	.	.	.	.	.	.	.	.
8D\	.	8f#/	.	8a/	.	.	.	.	.	.	.	.	.	.	.
8D\	.	8f#/	.	8a/	.	.	.	.	.	.	.	.	.	.	.
8D\	.	8f#/	.	8a/	.	.	.	.	.	.	.	.	.	.	.
8D\J	.	8f#/J	.	8a/J	.	.	.	.	.	.	.	.	.	.	.
=40	=40	=40	=40	=40	=40	=40	=40	=40	=40	=40	=40	=40	=40	=40	=40
8r	.	8r	.	8r	.	2.ryy	.	2.ryy	.	2.ryy	.	16dd#X\LL	ho-	2.ryy	2.ryy
.	.	.	.	.	.	.	.	.	.	.	.	16ee\	.	.	.
8G\L	.	8e/L	.	8b\L	.	.	.	.	.	.	.	16ff#\	.	.	.
.	.	.	.	.	.	.	.	.	.	.	.	16ee\JJ	.	.	.
8G\	.	8e/	.	8b\	.	.	.	.	.	.	.	4ee\	-mo	.	.
8G\	.	8e/	.	8b\	.	.	.	.	.	.	.	.	.	.	.
8G\	.	8e/	.	8b\	.	.	.	.	.	.	.	4r	.	.	.
8G\J	.	8e/J	.	8b\J	.	.	.	.	.	.	.	.	.	.	.
=41	=41	=41	=41	=41	=41	=41	=41	=41	=41	=41	=41	=41	=41	=41	=41
*	*	*	*	*	*	*	*	*	*	*	*	*	*ij	*	*
8r	.	8r	.	8r	.	2.ryy	.	2.ryy	.	2.ryy	.	2.ee\	et	2.ryy	2.ryy
8A\L	.	8g/L	.	8cc#X\L	.	.	.	.	.	.	.	.	.	.	.
8A\	.	8g/	.	8cc#\	.	.	.	.	.	.	.	.	.	.	.
8A\	.	8g/	.	8cc#\	.	.	.	.	.	.	.	.	.	.	.
8A\	.	8g/	.	8cc#\	.	.	.	.	.	.	.	.	.	.	.
8A\J	.	8g/J	.	8cc#\J	.	.	.	.	.	.	.	.	.	.	.
=42	=42	=42	=42	=42	=42	=42	=42	=42	=42	=42	=42	=42	=42	=42	=42
8r	.	8r	.	8r	.	2.ryy	.	2.ryy	.	2.ryy	.	16ee\LL	ho-	2.ryy	2.ryy
.	.	.	.	.	.	.	.	.	.	.	.	16ff#\	.	.	.
8D\L	.	8f#/L	.	8dd\L	.	.	.	.	.	.	.	16gg\	.	.	.
.	.	.	.	.	.	.	.	.	.	.	.	16ff#\JJ	.	.	.
8D\	.	8f#/	.	8dd\	.	.	.	.	.	.	.	4ff#\	-mo	.	.
8D\	.	8f#/	.	8dd\	.	.	.	.	.	.	.	.	.	.	.
*	*	*	*	*	*	*	*	*	*	*	*	*	*Xij	*	*
8D\	.	8f#/	.	8dd\	.	.	.	.	.	.	.	4r	.	.	.
8D\J	.	8f#/J	.	8dd\J	.	.	.	.	.	.	.	.	.	.	.
=43	=43	=43	=43	=43	=43	=43	=43	=43	=43	=43	=43	=43	=43	=43	=43
8r	.	8r	.	8r	.	2.ryy	.	2.ryy	.	2.ryy	.	4.ff#\	(et)	2.ryy	2.ryy
8D\L	.	8f#/L	.	8dd\L	.	.	.	.	.	.	.	.	.	.	.
8D\	.	8f#/	.	8dd\	.	.	.	.	.	.	.	.	.	.	.
8D\	.	8f#/	.	8dd\	.	.	.	.	.	.	.	16gg\LL	ho-	.	.
.	.	.	.	.	.	.	.	.	.	.	.	16ff#\JJ	.	.	.
8F#\	.	8a/	.	8dd\	.	.	.	.	.	.	.	16ee\LL	.	.	.
.	.	.	.	.	.	.	.	.	.	.	.	16dd\	.	.	.
!	!	!	!	!LO:TX:b:t=Verte	!	!	!	!	!	!	!	!	!	!	!
8F#\J	.	8a/J	.	8dd\J	.	.	.	.	.	.	.	16cc#X\	.	.	.
.	.	.	.	.	.	.	.	.	.	.	.	16dd\JJ	.	.	.
=44	=44	=44	=44	=44	=44	=44	=44	=44	=44	=44	=44	=44	=44	=44	=44
8r	.	8r	.	8r	.	2.ryy	.	2.ryy	.	2.ryy	.	2bb\	.	2.ryy	2.ryy
8G\L	.	8b/L	.	8dd\L	.	.	.	.	.	.	.	.	.	.	.
8G\	.	8b/	.	8dd\	.	.	.	.	.	.	.	.	.	.	.
8G\	.	8b/	.	8dd\	.	.	.	.	.	.	.	.	.	.	.
8F#\	.	8a/	.	8dd\	.	.	.	.	.	.	.	4aa\	-mo	.	.
8F#\J	.	8a/J	.	8dd\J	.	.	.	.	.	.	.	.	.	.	.
=45	=45	=45	=45	=45	=45	=45	=45	=45	=45	=45	=45	=45	=45	=45	=45
8r	.	8r	.	8r	.	2.ryy	.	2.ryy	.	2.ryy	.	8gg\	ho-	2.ryy	2.ryy
!LO:TX:a:t=P:problem=mixed beam	!	!	!	!	!	!	!	!	!	!	!	!	!	!	!
8G\L	.	8g/L	.	8ee\L	.	.	.	.	.	.	.	16ff#\LL	-mo	.	.
.	.	.	.	.	.	.	.	.	.	.	.	16ee\JJ	.	.	.
8A\	.	8f#/	.	8dd\	.	.	.	.	.	.	.	4dd\	fa-	.	.
8A\	.	8f#/	.	8dd\	.	.	.	.	.	.	.	.	.	.	.
8AA\	.	8e/	.	8cc#X\	.	.	.	.	.	.	.	4cc#X\	-ctus	.	.
8AA\J	.	8e/J	.	8cc#\J	.	.	.	.	.	.	.	.	.	.	.
=46	=46	=46	=46	=46	=46	=46	=46	=46	=46	=46	=46	=46	=46	=46	=46
!	!	!	!LO:DY:a	!	!LO:DY:a	!	!	!	!	!	!	!	!	!	!
4D\	.	4f#/	f	4dd\	f	2.ryy	.	2.ryy	.	2.ryy	.	4dd\	eſt	2.ryy	2.ryy
4D\	.	8f#/L	.	8aa\L	.	.	.	.	.	.	.	4r	.	.	.
.	.	8d/	.	8ff#\	.	.	.	.	.	.	.	.	.	.	.
4F#\	.	8f#/	.	8dd\	.	.	.	.	.	.	.	4r	.	.	.
.	.	8a/J	.	8ccn\J	.	.	.	.	.	.	.	.	.	.	.
=47	=47	=47	=47	=47	=47	=47	=47	=47	=47	=47	=47	=47	=47	=47	=47
4G\	.	8a/L	.	8cc\L	.	2.ryy	.	2.ryy	.	2.ryy	.	2.r	.	2.ryy	2.ryy
.	.	16g/L	.	16b\L	.	.	.	.	.	.	.	.	.	.	.
.	.	16a/JJ	.	16cc\JJ	.	.	.	.	.	.	.	.	.	.	.
4GG/	.	8g/L	.	8b\L	.	.	.	.	.	.	.	.	.	.	.
.	.	8b/	.	8gg\	.	.	.	.	.	.	.	.	.	.	.
8r	.	8g/	.	8ee\	.	.	.	.	.	.	.	.	.	.	.
8G\	.	8f#/J	.	8dd\J	.	.	.	.	.	.	.	.	.	.	.
=48	=48	=48	=48	=48	=48	=48	=48	=48	=48	=48	=48	=48	=48	=48	=48
4A\	.	8f#/L	.	8dd\L	.	2.ryy	.	2.ryy	.	2.ryy	.	2.r	.	2.ryy	2.ryy
.	.	16e/L	.	16cc#X\L	.	.	.	.	.	.	.	.	.	.	.
.	.	16f#/JJ	.	16dd\JJ	.	.	.	.	.	.	.	.	.	.	.
4AA/	.	8e/L	.	8cc#\L	.	.	.	.	.	.	.	.	.	.	.
.	.	8e/	.	8cc#\J	.	.	.	.	.	.	.	.	.	.	.
8r	.	8f#/	.	8dd\L	.	.	.	.	.	.	.	.	.	.	.
8A\	.	8g/J	.	8ee\J	.	.	.	.	.	.	.	.	.	.	.
=49	=49	=49	=49	=49	=49	=49	=49	=49	=49	=49	=49	=49	=49	=49	=49
4D\	.	8f#/L	.	8dd\L	.	2.ryy	.	2.ryy	.	2.ryy	.	2.r	.	2.ryy	2.ryy
.	.	8a/	.	8ff#\	.	.	.	.	.	.	.	.	.	.	.
4d\	.	8g/	.	8ee\	.	.	.	.	.	.	.	.	.	.	.
.	.	8f#/	.	8dd\	.	.	.	.	.	.	.	.	.	.	.
!	!	!	!	!LO:SIC:v:s=8cc#\	!	!	!	!	!	!	!	!	!	!	!
4D\	.	8e/	.	8cc\	.	.	.	.	.	.	.	.	.	.	.
.	.	8f#/J	.	8dd\J	.	.	.	.	.	.	.	.	.	.	.
=50	=50	=50	=50	=50	=50	=50	=50	=50	=50	=50	=50	=50	=50	=50	=50
4G\	.	8g/L	.	8ee\L	.	2.ryy	.	2.ryy	.	2.ryy	.	2.r	.	2.ryy	2.ryy
.	.	8b/J	.	8gg\	.	.	.	.	.	.	.	.	.	.	.
4A\	.	8a/L	.	8ff#\	.	.	.	.	.	.	.	.	.	.	.
.	.	8f#/	.	8dd\	.	.	.	.	.	.	.	.	.	.	.
4AA/	.	8g/	.	8ee\	.	.	.	.	.	.	.	.	.	.	.
.	.	8e/J	.	8cc#X\J	.	.	.	.	.	.	.	.	.	.	.
=51	=51	=51	=51	=51	=51	=51	=51	=51	=51	=51	=51	=51	=51	=51	=51
!	!	!	!LO:DY:a	!LO:TX:a:t=P:problem=mixed beam	!LO:DY:a	!	!	!	!	!	!	!	!	!	!
8D\L	.	8f#/L	p	8dd\L	p	2.ryy	.	2.ryy	.	2.ryy	.	2dd\	Cru-	2.ryy	2.ryy
8D\	.	8d/	.	8f#\	.	.	.	.	.	.	.	.	.	.	.
8D\	.	8d/	.	8f#\	.	.	.	.	.	.	.	.	.	.	.
8D\	.	8d/	.	8f#\	.	.	.	.	.	.	.	.	.	.	.
8D\	.	8d/	.	8f#\	.	.	.	.	.	.	.	4dd\	-ci-	.	.
8D\J	.	8d/J	.	8f#\J	.	.	.	.	.	.	.	.	.	.	.
=52	=52	=52	=52	=52	=52	=52	=52	=52	=52	=52	=52	=52	=52	=52	=52
8r	.	8r	.	8r	.	2.ryy	.	2.ryy	.	2.ryy	.	2dd\	-fix-	2.ryy	2.ryy
8B\L	.	8d/L	.	8f#/L	.	.	.	.	.	.	.	.	.	.	.
8B\	.	8d/	.	8f#/	.	.	.	.	.	.	.	.	.	.	.
8B\	.	8d/	.	8f#/	.	.	.	.	.	.	.	.	.	.	.
8B\	.	8d/	.	8f#/	.	.	.	.	.	.	.	4dd\	-us	.	.
8B\J	.	8d/J	.	8f#/J	.	.	.	.	.	.	.	.	.	.	.
=53	=53	=53	=53	=53	=53	=53	=53	=53	=53	=53	=53	=53	=53	=53	=53
8r	.	8r	.	8r	.	2.ryy	.	2.ryy	.	2.ryy	.	16dd\LL	e-	2.ryy	2.ryy
.	.	.	.	.	.	.	.	.	.	.	.	16ee\JJ	.	.	.
8G#X\L	.	8B/L	.	8e/L	.	.	.	.	.	.	.	16ff#\LL	-ti-	.	.
.	.	.	.	.	.	.	.	.	.	.	.	16ee\JJ	.	.	.
8G#\	.	8B/	.	8e/	.	.	.	.	.	.	.	4.ee\	-am	.	.
8G#\	.	8B/	.	8e/	.	.	.	.	.	.	.	.	.	.	.
8G#\	.	8B/	.	8e/	.	.	.	.	.	.	.	.	.	.	.
8G#\J	.	8B/J	.	8e/J	.	.	.	.	.	.	.	8dd\	pro	.	.
=54	=54	=54	=54	=54	=54	=54	=54	=54	=54	=54	=54	=54	=54	=54	=54
8r	.	8r	.	8r	.	2.ryy	.	2.ryy	.	2.ryy	.	8dd\L	no-	2.ryy	2.ryy
8A\L	.	8cn/L	.	8e/L	.	.	.	.	.	.	.	8ccn\J	.	.	.
8A\	.	8c/	.	8e/	.	.	.	.	.	.	.	4cc\	-bis	.	.
8A\	.	8c/	.	8e/	.	.	.	.	.	.	.	.	.	.	.
8A\	.	8c/	.	8e/	.	.	.	.	.	.	.	4r	.	.	.
8A\J	.	8c/J	.	8e/J	.	.	.	.	.	.	.	.	.	.	.
=55	=55	=55	=55	=55	=55	=55	=55	=55	=55	=55	=55	=55	=55	=55	=55
8r	.	8r	.	8r	.	2.ryy	.	2.ryy	.	2.ryy	.	2cc\	Cru-	2.ryy	2.ryy
8c\L	.	8c/L	.	8e/L	.	.	.	.	.	.	.	.	.	.	.
8c\	.	8c/	.	8e/	.	.	.	.	.	.	.	.	.	.	.
8c\	.	8c/	.	8e/	.	.	.	.	.	.	.	.	.	.	.
8c\	.	8c/	.	8e/	.	.	.	.	.	.	.	4cc\	-ci-	.	.
8c\J	.	8c/J	.	8e/J	.	.	.	.	.	.	.	.	.	.	.
=56	=56	=56	=56	=56	=56	=56	=56	=56	=56	=56	=56	=56	=56	=56	=56
8r	.	8r	.	8r	.	2.ryy	.	2.ryy	.	2.ryy	.	2cc\	-fix-	2.ryy	2.ryy
8A\L	.	8c/L	.	8e/L	.	.	.	.	.	.	.	.	.	.	.
8A\	.	8c/	.	8e/	.	.	.	.	.	.	.	.	.	.	.
8A\	.	8c/	.	8e/	.	.	.	.	.	.	.	.	.	.	.
8A\	.	8c/	.	8e/	.	.	.	.	.	.	.	4cc\	-us	.	.
8A\J	.	8c/J	.	8e/J	.	.	.	.	.	.	.	.	.	.	.
=57	=57	=57	=57	=57	=57	=57	=57	=57	=57	=57	=57	=57	=57	=57	=57
8r	.	8r	.	8r	.	2.ryy	.	2.ryy	.	2.ryy	.	16cc\LL	e-	2.ryy	2.ryy
.	.	.	.	.	.	.	.	.	.	.	.	16dd\JJ	.	.	.
8F#\L	.	8A/L	.	8d/L	.	.	.	.	.	.	.	16ee\LL	-ti-	.	.
.	.	.	.	.	.	.	.	.	.	.	.	16dd\JJ	.	.	.
8F#\	.	8A/	.	8d/	.	.	.	.	.	.	.	4.dd\	-am	.	.
8F#\	.	8A/	.	8d/	.	.	.	.	.	.	.	.	.	.	.
8F#\	.	8A/	.	8d/	.	.	.	.	.	.	.	.	.	.	.
8F#\J	.	8A/J	.	8d/J	.	.	.	.	.	.	.	8cc\	pro	.	.
=58	=58	=58	=58	=58	=58	=58	=58	=58	=58	=58	=58	=58	=58	=58	=58
8r	.	8r	.	8r	.	2.ryy	.	2.ryy	.	2.ryy	.	8cc\L	no-	2.ryy	2.ryy
8G\L	.	8B/L	.	8d/L	.	.	.	.	.	.	.	8b\J	.	.	.
8G\	.	8B/	.	8d/	.	.	.	.	.	.	.	4b\	-bis	.	.
8G\	.	8B/	.	8d/	.	.	.	.	.	.	.	.	.	.	.
8G\	.	8B/	.	8d/	.	.	.	.	.	.	.	8r	.	.	.
8G\J	.	8B/J	.	8d/J	.	.	.	.	.	.	.	8dd\	ſub	.	.
=59	=59	=59	=59	=59	=59	=59	=59	=59	=59	=59	=59	=59	=59	=59	=59
8r	.	8r	.	8r	.	2.ryy	.	2.ryy	.	2.ryy	.	16dd\LL	pon-	2.ryy	2.ryy
.	.	.	.	.	.	.	.	.	.	.	.	16cc\JJ	.	.	.
8E\L	.	8d/L	.	8cc\L	.	.	.	.	.	.	.	16b\LL	-ti-	.	.
.	.	.	.	.	.	.	.	.	.	.	.	16cc\JJ	.	.	.
8E\	.	8d/	.	8cc\	.	.	.	.	.	.	.	4aa\	-o	.	.
8E\	.	8d/	.	8cc\	.	.	.	.	.	.	.	.	.	.	.
8E\	.	8d/	.	8cc\	.	.	.	.	.	.	.	8r	.	.	.
*	*	*	*	*	*	*	*	*	*	*	*	*	*ij	*	*
8E\J	.	8d/J	.	8cc\J	.	.	.	.	.	.	.	8cc\	ſub	.	.
=60	=60	=60	=60	=60	=60	=60	=60	=60	=60	=60	=60	=60	=60	=60	=60
8r	.	8r	.	8r	.	2.ryy	.	2.ryy	.	2.ryy	.	16cc\LL	pon-	2.ryy	2.ryy
.	.	.	.	.	.	.	.	.	.	.	.	16b\JJ	.	.	.
8G\L	.	8d/L	.	8b\L	.	.	.	.	.	.	.	16a\LL	-ti-	.	.
.	.	.	.	.	.	.	.	.	.	.	.	16b\JJ	.	.	.
8G\	.	8d/	.	8b\	.	.	.	.	.	.	.	4gg\	-o	.	.
8G\	.	8d/	.	8b\	.	.	.	.	.	.	.	.	.	.	.
*	*	*	*	*	*	*	*	*	*	*	*	*	*Xij	*	*
8G\	.	8d/	.	8b\	.	.	.	.	.	.	.	8r	.	.	.
8G\J	.	8d/J	.	8b\J	.	.	.	.	.	.	.	8b\	ſub	.	.
=61	=61	=61	=61	=61	=61	=61	=61	=61	=61	=61	=61	=61	=61	=61	=61
8r	.	8r	.	8r	.	2.ryy	.	2.ryy	.	2.ryy	.	16b\LL	pon-	2.ryy	2.ryy
.	.	.	.	.	.	.	.	.	.	.	.	16a\JJ	.	.	.
8C/L	.	8e/L	.	8a/L	.	.	.	.	.	.	.	16g\LL	-ti-	.	.
.	.	.	.	.	.	.	.	.	.	.	.	16a\JJ	.	.	.
8C/	.	8e/	.	8a/	.	.	.	.	.	.	.	4a\	-o	.	.
8C/	.	8e/	.	8a/	.	.	.	.	.	.	.	.	.	.	.
8C#X/	.	8e/	.	8g/	.	.	.	.	.	.	.	4g\	pi-	.	.
8C#/J	.	8e/J	.	8g/J	.	.	.	.	.	.	.	.	.	.	.
=62	=62	=62	=62	=62	=62	=62	=62	=62	=62	=62	=62	=62	=62	=62	=62
8r	.	8r	.	8r	.	2.ryy	.	2.ryy	.	2.ryy	.	4g\	-la-	2.ryy	2.ryy
8D\L	.	8A/L	.	8g/L	.	.	.	.	.	.	.	.	.	.	.
8D\	.	8A/	.	8f#/	.	.	.	.	.	.	.	4f#/	-to	.	.
8D\	.	8A/	.	8f#/	.	.	.	.	.	.	.	.	.	.	.
8D\	.	8A/	.	8f#/	.	.	.	.	.	.	.	4r	.	.	.
8D\J	.	8A/J	.	8f#/J	.	.	.	.	.	.	.	.	.	.	.
=63	=63	=63	=63	=63	=63	=63	=63	=63	=63	=63	=63	=63	=63	=63	=63
8r	.	8r	.	8r	.	2.ryy	.	2.ryy	.	2.ryy	.	2.g\	paſ-	2.ryy	2.ryy
!LO:TX:a:t=P:problem=w źródle F# lub G	!	!	!	!	!	!	!	!	!	!	!	!	!	!	!
8F#\L	.	8B/L	.	8d/L	.	.	.	.	.	.	.	.	.	.	.
8G\	.	8B/	.	8d/	.	.	.	.	.	.	.	.	.	.	.
8G\	.	8B/	.	8d/	.	.	.	.	.	.	.	.	.	.	.
8G\	.	8B/	.	8d/	.	.	.	.	.	.	.	.	.	.	.
8G\J	.	8B/J	.	8d/J	.	.	.	.	.	.	.	.	.	.	.
=64	=64	=64	=64	=64	=64	=64	=64	=64	=64	=64	=64	=64	=64	=64	=64
8r	.	8r	.	8r	.	2.ryy	.	2.ryy	.	2.ryy	.	16g#X\LL	.	2.ryy	2.ryy
.	.	.	.	.	.	.	.	.	.	.	.	16a\	.	.	.
8C/L	.	8A/L	.	8e/L	.	.	.	.	.	.	.	16b\	.	.	.
.	.	.	.	.	.	.	.	.	.	.	.	16a\JJ	.	.	.
8C/	.	8A/	.	8e/	.	.	.	.	.	.	.	4a\	-sus	.	.
8C/	.	8A/	.	8e/	.	.	.	.	.	.	.	.	.	.	.
8C/	.	8A/	.	8e/	.	.	.	.	.	.	.	4r	.	.	.
8C/J	.	8A/J	.	8e/J	.	.	.	.	.	.	.	.	.	.	.
=65	=65	=65	=65	=65	=65	=65	=65	=65	=65	=65	=65	=65	=65	=65	=65
8r	.	8r	.	8r	.	2.ryy	.	2.ryy	.	2.ryy	.	2.a\	paſ-	2.ryy	2.ryy
8D\L	.	8c/L	.	8f#/L	.	.	.	.	.	.	.	.	.	.	.
8D\	.	8c/	.	8f#/	.	.	.	.	.	.	.	.	.	.	.
8D\	.	8c/	.	8f#/	.	.	.	.	.	.	.	.	.	.	.
8D\	.	8c/	.	8f#/	.	.	.	.	.	.	.	.	.	.	.
8D\J	.	8c/J	.	8f#/J	.	.	.	.	.	.	.	.	.	.	.
=66	=66	=66	=66	=66	=66	=66	=66	=66	=66	=66	=66	=66	=66	=66	=66
8r	.	8r	.	8r	.	2.ryy	.	2.ryy	.	2.ryy	.	16a\LL	.	2.ryy	2.ryy
.	.	.	.	.	.	.	.	.	.	.	.	16b\	.	.	.
8G\L	.	8B/L	.	8d/L	.	.	.	.	.	.	.	16cc\	.	.	.
.	.	.	.	.	.	.	.	.	.	.	.	16b\JJ	.	.	.
8G\	.	8B/	.	8d/	.	.	.	.	.	.	.	4b\	-sus	.	.
8G\	.	8B/	.	8d/	.	.	.	.	.	.	.	.	.	.	.
8G\	.	8B/	.	8d/	.	.	.	.	.	.	.	4r	.	.	.
8G\J	.	8B/J	.	8d/J	.	.	.	.	.	.	.	.	.	.	.
=67	=67	=67	=67	=67	=67	=67	=67	=67	=67	=67	=67	=67	=67	=67	=67
8r	.	8r	.	8r	.	2.ryy	.	2.ryy	.	2.ryy	.	4.dd\	paſ-	2.ryy	2.ryy
8G\L	.	8B/L	.	8d/L	.	.	.	.	.	.	.	.	.	.	.
8G\	.	8B/	.	8d/	.	.	.	.	.	.	.	.	.	.	.
8G\	.	8B/	.	8d/	.	.	.	.	.	.	.	16cc\LL	.	.	.
.	.	.	.	.	.	.	.	.	.	.	.	16b\JJ	.	.	.
8B\	.	8d/	.	8g/	.	.	.	.	.	.	.	16a\LL	.	.	.
.	.	.	.	.	.	.	.	.	.	.	.	16g\JJ	.	.	.
8B\J	.	8d/J	.	8g/J	.	.	.	.	.	.	.	16f#\LL	-sus	.	.
.	.	.	.	.	.	.	.	.	.	.	.	16g\JJ	.	.	.
=68	=68	=68	=68	=68	=68	=68	=68	=68	=68	=68	=68	=68	=68	=68	=68
8r	.	8r	.	8r	.	2.ryy	.	2.ryy	.	2.ryy	.	4.ee\	paſ-	2.ryy	2.ryy
8c\L	.	8e/L	.	8g/L	.	.	.	.	.	.	.	.	.	.	.
8c\	.	8e/	.	8g/	.	.	.	.	.	.	.	.	.	.	.
8c\	.	8e/	.	8g/	.	.	.	.	.	.	.	16dd\LL	.	.	.
.	.	.	.	.	.	.	.	.	.	.	.	16ee\JJ	.	.	.
8B\	.	8d/	.	8g/	.	.	.	.	.	.	.	4dd\	-sus	.	.
8B\J	.	8d/J	.	8g/J	.	.	.	.	.	.	.	.	.	.	.
=69	=69	=69	=69	=69	=69	=69	=69	=69	=69	=69	=69	=69	=69	=69	=69
8r	.	8r	.	8r	.	2.ryy	.	2.ryy	.	2.ryy	.	8cc\	(et)	2.ryy	2.ryy
8c\L	.	8c/L	.	8a/L	.	.	.	.	.	.	.	16ee\LL	ſe-	.	.
.	.	.	.	.	.	.	.	.	.	.	.	16cc\JJ	.	.	.
8d\	.	8B/	.	8g/	.	.	.	.	.	.	.	4b\	-pul-	.	.
8d\	.	8B/	.	8g/	.	.	.	.	.	.	.	.	.	.	.
8D\	.	8A/	.	8f#/	.	.	.	.	.	.	.	4a\	-tus	.	.
8D\J	.	8A/J	.	8f#/J	.	.	.	.	.	.	.	.	.	.	.
=70	=70	=70	=70	=70	=70	=70	=70	=70	=70	=70	=70	=70	=70	=70	=70
8r	.	8r	.	8r	.	2.ryy	.	2.ryy	.	2.ryy	.	4b\	eſt	2.ryy	2.ryy
!	!	!LO:TX:a:t=P:problem=mixed beam	!	!	!	!	!	!	!	!	!	!	!	!	!
8G\L	.	8B/L	.	8dd\L	.	.	.	.	.	.	.	.	.	.	.
8G\	.	8b/	.	8dd\	.	.	.	.	.	.	.	4dd\	paſ-	.	.
8G\	.	8b/	.	8dd\	.	.	.	.	.	.	.	.	.	.	.
8G\	.	8b/	.	8dd\	.	.	.	.	.	.	.	4cc\	-sus	.	.
8G\J	.	8b/J	.	8dd\J	.	.	.	.	.	.	.	.	.	.	.
=71	=71	=71	=71	=71	=71	=71	=71	=71	=71	=71	=71	=71	=71	=71	=71
8r	.	8r	.	8r	.	2.ryy	.	2.ryy	.	2.ryy	.	2ee-X\	(et)	2.ryy	2.ryy
8G\L	.	8cc\L	.	8ee-X\L	.	.	.	.	.	.	.	.	.	.	.
8G\	.	8cc\	.	8ee-\	.	.	.	.	.	.	.	.	.	.	.
8G\	.	8cc\	.	8ee-\	.	.	.	.	.	.	.	.	.	.	.
8G\	.	8b-X\	.	8dd\	.	.	.	.	.	.	.	4dd\	ſe-	.	.
8G\J	.	8b-\J	.	8dd\J	.	.	.	.	.	.	.	.	.	.	.
=72	=72	=72	=72	=72	=72	=72	=72	=72	=72	=72	=72	=72	=72	=72	=72
8r	.	8r	.	8r	.	2.ryy	.	2.ryy	.	2.ryy	.	2cc#X\	-pul-	2.ryy	2.ryy
8E\L	.	8g/L	.	8cc#X\L	.	.	.	.	.	.	.	.	.	.	.
8E\	.	8g/	.	8cc#\	.	.	.	.	.	.	.	.	.	.	.
8E\	.	8g/	.	8cc#\	.	.	.	.	.	.	.	.	.	.	.
8E\	.	8g/	.	8cc#\	.	.	.	.	.	.	.	4cc#\	-tus	.	.
8E\J	.	8g/J	.	8cc#\J	.	.	.	.	.	.	.	.	.	.	.
=73	=73	=73	=73	=73	=73	=73	=73	=73	=73	=73	=73	=73	=73	=73	=73
4D\	.	4f#/	.	2dd\	.	2.ryy	.	2.ryy	.	2.ryy	.	2dd\	eſt	2.ryy	2.ryy
4D\	.	4f#/	.	.	.	.	.	.	.	.	.	.	.	.	.
!	!	!LO:TX:b:Bi:t=Volti (et) Reſurrexit	!	!	!	!	!	!	!	!	!	!LO:TX:b:Bi:t=Volti (et) Reſurrexit	!	!	!
4r	.	4r	.	4r	.	.	.	.	.	.	.	4r	.	.	.
==	==	==	==	==	==	==	==	==	==	==	==	==	==	==	==
*-	*-	*-	*-	*-	*-	*-	*-	*-	*-	*-	*-	*-	*-	*-	*-
!!!system-decoration: [(s1,s2)][(s3,s4,s5,s6)][(s7,s8)]s9
!!!RDF**kern: > = above
!!!RDF**kern: < = below
!!!RDF**kern: | = vertical stroke
!!!RDF**kern: N = linked
!!!RDF**kern: i = editorial accidental
!!!RDF**kern: l = terminal long
!!!ENC: Andrzej Kubiczek
!!!END: 2020-07-06
!!!EED: Wojciech Jakubiak-Danek
!!!EEV: 2021-12-29
